Yaru++/status/scalable/dialog-warning.svg

<svg height="256" viewBox="0 0 67.733333 67.733333" width="256" xmlns="http://www.w3.org/2000/svg" xmlns:xlink="http://www.w3.org/1999/xlink"><linearGradient id="a" gradientUnits="userSpaceOnUse" x1="21.10105032" x2="46.50105" y1="4.03436852" y2="63.30103444"><stop offset="0" stop-color="#da1636"/><stop offset="1" stop-color="#f22c42"/></linearGradient><filter id="b" color-interpolation-filters="sRGB" height="1.096" width="1.096" x="-.048" y="-.048"><feGaussianBlur stdDeviation="4.48"/></filter><filter id="c" color-interpolation-filters="sRGB" height="1.024" width="1.024" x="-.012" y="-.012"><feGaussianBlur stdDeviation="1.12"/></filter><circle cx="122.752" cy="122.752" filter="url(#c)" opacity=".1" r="112" transform="matrix(.26458333 0 0 .26458333 1.322917 1.454153)"/><circle cx="122.752" cy="122.752" filter="url(#b)" opacity=".2" r="112" transform="matrix(.26458333 0 0 .26458333 1.322917 1.454153)"/><circle cx="33.801052" cy="33.667702" fill="url(#a)" r="29.633333"/><path d="m4.167717 36.233079a29.774753 29.77474 0 0 0 29.627388 27.067957 29.774753 29.77474 0 0 0 29.639278-27.067957z" fill="#fff" opacity=".05"/><path d="m159.13404 123.36543q0 8.77054-.40793 16.52125-.20397 7.54674-.81586 14.68555-.6119 7.13881-1.42777 13.86969-.61189 6.73088-1.42776 13.46176h-6.11898q-1.83569-13.66573-3.05949-27.33145-1.01983-13.66572-1.01983-31.2068v-39.365436h14.27762zm4.07932 93.21247q0 4.69121-3.05949 7.95467-2.85552 3.26346-8.15864 3.26346-5.30311 0-8.3626-3.26346-2.85553-3.26346-2.85553-7.95467 0-4.69122 2.85553-7.95468 3.05949-3.26345 8.3626-3.26345 5.30312 0 8.15864 3.26345 3.05949 3.26346 3.05949 7.95468z" fill="#fff" transform="matrix(.26458333 0 0 .26458333 -6.415616 -7.607293)"/><path d="m33.80105 63.301033a29.633333 29.633333 0 0 1 -29.633333-29.633333 29.633333 29.633333 0 0 1 .010853-.309541 29.633333 29.633333 0 0 0 29.62248 29.413708 29.633333 29.633333 0 0 0 29.62248-29.323792 29.633333 29.633333 0 0 1 .01085.219625 29.633333 29.633333 0 0 1 -29.633333 29.633333z" opacity=".2"/><path d="m33.80105 4.0343689a29.633333 29.633333 0 0 0 -29.633333 29.6333311 29.633333 29.633333 0 0 0 .010853.309542 29.633333 29.633333 0 0 1 29.62248-29.4137065 29.633333 29.633333 0 0 1 29.62248 29.3237905 29.633333 29.633333 0 0 0 .010848-.219626 29.633333 29.633333 0 0 0 -29.633333-29.6333311z" fill="#fff" opacity=".3"/></svg>

<?xml version="1.0" encoding="UTF-8" standalone="no"?>
<svg
   xmlns:dc="http://purl.org/dc/elements/1.1/"
   xmlns:cc="http://creativecommons.org/ns#"
   xmlns:rdf="http://www.w3.org/1999/02/22-rdf-syntax-ns#"
   xmlns:svg="http://www.w3.org/2000/svg"
   xmlns="http://www.w3.org/2000/svg"
   xmlns:xlink="http://www.w3.org/1999/xlink"
   xmlns:sodipodi="http://sodipodi.sourceforge.net/DTD/sodipodi-0.dtd"
   xmlns:inkscape="http://www.inkscape.org/namespaces/inkscape"
   height="256"
   viewBox="0 0 67.733333 67.733333"
   width="256"
   version="1.1"
   id="svg18"
   sodipodi:docname="dialog-warning.svg"
   inkscape:version="0.92.5 (2060ec1f9f, 2020-04-08)">
  <metadata
     id="metadata24">
    <rdf:RDF>
      <cc:Work
         rdf:about="">
        <dc:format>image/svg+xml</dc:format>
        <dc:type
           rdf:resource="http://purl.org/dc/dcmitype/StillImage" />
      </cc:Work>
    </rdf:RDF>
  </metadata>
  <defs
     id="defs22">
    <linearGradient
       inkscape:collect="always"
       xlink:href="#linearGradient876-3"
       id="linearGradient11065"
       x1="104"
       y1="44"
       x2="200"
       y2="268"
       gradientUnits="userSpaceOnUse"
       gradientTransform="matrix(0.26458333,0,0,0.26458333,-6.415616,-7.6072976)" />
    <linearGradient
       inkscape:collect="always"
       id="linearGradient876-3">
      <stop
         style="stop-color:#da1636;stop-opacity:1"
         offset="0"
         id="stop872-3" />
      <stop
         style="stop-color:#f22c42;stop-opacity:1"
         offset="1"
         id="stop874-5" />
    </linearGradient>
    <filter
       inkscape:collect="always"
       style="color-interpolation-filters:sRGB"
       id="filter48952"
       x="-0.048"
       width="1.096"
       y="-0.048"
       height="1.096">
      <feGaussianBlur
         inkscape:collect="always"
         stdDeviation="4.48"
         id="feGaussianBlur48954" />
    </filter>
    <filter
       inkscape:collect="always"
       style="color-interpolation-filters:sRGB"
       id="filter48967"
       x="-0.012"
       width="1.024"
       y="-0.012"
       height="1.024">
      <feGaussianBlur
         inkscape:collect="always"
         stdDeviation="1.12"
         id="feGaussianBlur48969" />
    </filter>
  </defs>
  <sodipodi:namedview
     pagecolor="#ffffff"
     bordercolor="#666666"
     borderopacity="1"
     objecttolerance="10"
     gridtolerance="10"
     guidetolerance="10"
     inkscape:pageopacity="0"
     inkscape:pageshadow="2"
     inkscape:window-width="1920"
     inkscape:window-height="1016"
     id="namedview20"
     showgrid="false"
     inkscape:zoom="0.921875"
     inkscape:cx="128"
     inkscape:cy="128"
     inkscape:window-x="0"
     inkscape:window-y="27"
     inkscape:window-maximized="1"
     inkscape:current-layer="svg18" />
  <filter
     id="a"
     color-interpolation-filters="sRGB"
     height="1.049596"
     width="1.046504"
     x="-.023252"
     y="-.024798">
    <feGaussianBlur
       stdDeviation=".57410618"
       id="feGaussianBlur2" />
  </filter>
  <filter
     id="b"
     color-interpolation-filters="sRGB"
     height="1.12399"
     width="1.116259"
     x="-.058129"
     y="-.061995">
    <feGaussianBlur
       stdDeviation="1.4352654"
       id="feGaussianBlur5" />
  </filter>
  <circle
     style="display:inline;opacity:0.1;fill:#000000;fill-opacity:1;stroke:none;stroke-width:1;stroke-linecap:round;stroke-linejoin:round;stroke-miterlimit:4;stroke-dasharray:none;stroke-opacity:1;filter:url(#filter48967);enable-background:new"
     id="path11042-4"
     r="112"
     cy="122.752"
     cx="122.752"
     transform="matrix(0.26458333,0,0,0.26458333,1.322917,1.4541534)" />
  <circle
     style="display:inline;opacity:0.2;fill:#000000;fill-opacity:1;stroke:none;stroke-width:1;stroke-linecap:round;stroke-linejoin:round;stroke-miterlimit:4;stroke-dasharray:none;stroke-opacity:1;filter:url(#filter48952);enable-background:new"
     id="path11042-9"
     r="112"
     cy="122.752"
     cx="122.752"
     transform="matrix(0.26458333,0,0,0.26458333,1.322917,1.4541534)" />
  <circle
     style="display:inline;opacity:1;fill:url(#linearGradient11065);fill-opacity:1;stroke:none;stroke-width:0.26458332;stroke-linecap:round;stroke-linejoin:round;stroke-miterlimit:4;stroke-dasharray:none;stroke-opacity:1;enable-background:new"
     id="path11042"
     r="29.633333"
     cy="33.667702"
     cx="33.801052" />
  <path
     style="display:inline;opacity:0.05;fill:#ffffff;fill-opacity:1;stroke:none;stroke-width:2.82222199;stroke-linecap:round;stroke-linejoin:round;stroke-miterlimit:4;stroke-dasharray:none;stroke-opacity:1;enable-background:new"
     d="M 4.167717,36.233079 A 29.774753,29.77474 0 0 0 33.795105,63.301036 29.774753,29.77474 0 0 0 63.434383,36.233079 Z"
     id="rect12119"
     inkscape:connector-curvature="0" />
  <g
     transform="matrix(0.26458333,0,0,0.26458333,-6.415616,-7.6072926)"
     aria-label="!"
     style="font-style:normal;font-weight:normal;font-size:203.96600342px;line-height:1000%;font-family:sans-serif;text-align:center;letter-spacing:0px;word-spacing:0px;text-anchor:middle;display:inline;fill:#ffffff;fill-opacity:1;stroke:none;stroke-width:5.09915018px;stroke-linecap:butt;stroke-linejoin:miter;stroke-opacity:1;enable-background:new"
     id="text913">
    <path
       inkscape:connector-curvature="0"
       d="m 159.13404,123.36543 q 0,8.77054 -0.40793,16.52125 -0.20397,7.54674 -0.81586,14.68555 -0.6119,7.13881 -1.42777,13.86969 -0.61189,6.73088 -1.42776,13.46176 h -6.11898 q -1.83569,-13.66573 -3.05949,-27.33145 -1.01983,-13.66572 -1.01983,-31.2068 V 83.999994 h 14.27762 z m 4.07932,93.21247 q 0,4.69121 -3.05949,7.95467 -2.85552,3.26346 -8.15864,3.26346 -5.30311,0 -8.3626,-3.26346 -2.85553,-3.26346 -2.85553,-7.95467 0,-4.69122 2.85553,-7.95468 3.05949,-3.26345 8.3626,-3.26345 5.30312,0 8.15864,3.26345 3.05949,3.26346 3.05949,7.95468 z"
       style="font-style:normal;font-variant:normal;font-weight:300;font-stretch:normal;font-family:Ubuntu;-inkscape-font-specification:'Ubuntu Light';text-align:center;text-anchor:middle;fill:#ffffff;fill-opacity:1;stroke-width:5.09915018px"
       id="path939" />
  </g>
  <path
     inkscape:connector-curvature="0"
     style="display:inline;opacity:0.2;fill:#000000;fill-opacity:1;stroke:none;stroke-width:0.26458332;stroke-linecap:round;stroke-linejoin:round;stroke-miterlimit:4;stroke-dasharray:none;stroke-opacity:1;enable-background:new"
     d="M 33.80105,63.301033 A 29.633333,29.633333 0 0 1 4.167717,33.6677 29.633333,29.633333 0 0 1 4.17857,33.358159 29.633333,29.633333 0 0 0 33.80105,62.771867 29.633333,29.633333 0 0 0 63.42353,33.448075 29.633333,29.633333 0 0 1 63.43438,33.6677 29.633333,29.633333 0 0 1 33.801047,63.301033 Z"
     id="path11042-1-7" />
  <path
     style="display:inline;opacity:0.3;fill:#ffffff;fill-opacity:1;stroke:none;stroke-width:0.26458332;stroke-linecap:round;stroke-linejoin:round;stroke-miterlimit:4;stroke-dasharray:none;stroke-opacity:1;enable-background:new"
     d="M 33.80105,4.0343689 A 29.633333,29.633333 0 0 0 4.167717,33.6677 29.633333,29.633333 0 0 0 4.17857,33.977242 29.633333,29.633333 0 0 1 33.80105,4.5635355 29.633333,29.633333 0 0 1 63.42353,33.887326 29.633333,29.633333 0 0 0 63.434378,33.6677 29.633333,29.633333 0 0 0 33.801045,4.0343689 Z"
     id="path11042-1"
     inkscape:connector-curvature="0" />
</svg>
